X:1
T: The Gay Young Squire
N:
C:
S:
A:
O:
R:
M:4/4
K:Em
I:speed 200
%W: A1
% voice 1 (1 lines, 43 notes)
K:Em
M:4/4
L:1/16
D4 |E2 G2 F2 A2 G2 B2 A2 c2 |B4 A4 G4 F4 |G8 F8 |E2 G2 F2 E2 D2 C2 D2 B,2 |E2 G2 F2 A2 G2 B2 A2 c2 |B4 A4 G4 F4 |G8 F8 |e2 E2 G2 B2 e4 d4 |
%W: A2
% voice 1 (1 lines, 42 notes)
E2 G2 F2 A2 G2 B2 A2 c2 |B4 A4 G4 F4 |G8 F8 |E2 G2 F2 E2 D2 C2 D2 B,2 |E2 G2 F2 A2 G2 B2 A2 c2 |B4 A4 G4 F4 |G8 F8 |e2 E2 G2 B2 e4 f4 |
%W: B1
% voice 1 (1 lines, 35 notes)
G2 B2 A2 c2 B2 e2 d2 c2 |B4 A4 G4 F4 |G8 F8 |g4 G4 B4 d4 |G2 B2 A2 c2 B2 e2 d2 c2 |B4 A4 G4 F4 |G8 F6 A2 |G12 B4 |
%W:
% voice 1 (1 lines, 52 notes)
e2 B2 e2 B2 ^d2 B2 d2 B2 |e2 B2 e2 B2 ^d2 B2 d2 B2 |e2 ^d2 e2 f2 e2 g2 f2 e2 |d8 B6 a2 |g2 e2 g2 e2 f2 ^d2 f2 d2 |g2 e2 g2 e2 f2 a2 g2 b2 |a2 c'2 b2 a2 g4 f2 e2 |e12 f4 |
%W: B2
% voice 1 (1 lines, 35 notes)
G2 B2 A2 c2 B2 e2 d2 c2 |B4 A4 G4 F4 |G8 F8 |g4 G4 B4 d4 |G2 B2 A2 c2 B2 e2 d2 c2 |B4 A4 G4 F4 |G8 F6 A2 |G12 B4 |
%W:
% voice 1 (1 lines, 51 notes)
e2 B2 e2 B2 ^d2 B2 d2 B2 |e2 B2 e2 B2 ^d2 B2 d2 B2 |e2 ^d2 e2 f2 e2 g2 f2 e2 |d8 B6 a2 |g2 e2 g2 e2 f2 ^d2 f2 d2 |g2 e2 g2 e2 f2 a2 g2 b2 |a2 c'2 b2 a2 g4 f2 e2 |e12 ||
